images/icons/upwork.svg

<svg fill="none" height="24" viewBox="0 0 24 24" width="24" xmlns="http://www.w3.org/2000/svg"><path d="m18.5576 4.45199c-2.5725.01238-4.5278 1.71375-5.2598 4.42499-1.2281-1.89-2.1862-4.05186-2.7356-5.87698l-2.70747.01275.0375 7.17675c.0016.3378-.06337.6727-.19119.9855s-.31599.5973-.55377.8373c-.23778.2401-.52051.4309-.83206.5617-.31154.1308-.64579.1989-.98366.2005-.68237.0033-1.33807-.2647-1.82286-.7449-.24005-.2378-.43091-.5205-.56169-.8321-.13077-.3115-.19891-.6458-.20051-.9837l-.0375-7.17668-2.70899.01313.0374999 7.17705c.0105 2.9783 2.3902401 5.3382 5.3024801 5.3232 2.91225-.015 5.27062-2.3948 5.25752-5.3738l-.0057-1.21872c.546 1.08002 1.2285 2.22752 1.9785 3.24002l-1.6556 7.9289 2.775-.0127 1.1925-5.7607c1.086.6723 2.3063 1.0725 3.7275 1.0657 2.979-.0131 5.4052-2.4611 5.3902-5.57623-.0135-2.97973-2.463-5.40485-5.442-5.39135zm.0386 8.19221c-1.083.0049-2.1682-.4635-3.0517-1.2049l.2655-1.0875v-.0682c.198-1.15275.7972-3.11849 2.8282-3.12749.7177-.00131 1.4067.28144 1.9166.78648.5099.50505.7992 1.19135.8048 1.90901-.0612 1.5574-1.3414 2.7825-2.7638 2.7889z" fill="#fff"/></svg>

<svg width="24" height="24" viewBox="0 0 24 24" fill="none" xmlns="http://www.w3.org/2000/svg">
<path d="M18.5576 4.45199C15.9851 4.46437 14.0298 6.16574 13.2978 8.87698C12.0697 6.98698 11.1116 4.82512 10.5622 3L7.85473 3.01275L7.89223 10.1895C7.89383 10.5273 7.82886 10.8622 7.70104 11.175C7.57322 11.4878 7.38505 11.7723 7.14727 12.0123C6.90949 12.2524 6.62676 12.4432 6.31521 12.574C6.00367 12.7048 5.66942 12.7729 5.33155 12.7745C4.64918 12.7778 3.99348 12.5098 3.50869 12.0296C3.26864 11.7918 3.07778 11.5091 2.947 11.1975C2.81623 10.886 2.74809 10.5517 2.74649 10.2138L2.70899 3.03712L0 3.05025L0.0374999 10.2273C0.0479999 13.2056 2.42774 15.5655 5.33998 15.5505C8.25223 15.5355 10.6106 13.1557 10.5975 10.1767L10.5918 8.95798C11.1378 10.038 11.8203 11.1855 12.5703 12.198L10.9147 20.1269L13.6897 20.1142L14.8822 14.3535C15.9682 15.0258 17.1885 15.426 18.6097 15.4192C21.5887 15.4061 24.0149 12.9581 23.9999 9.84297C23.9864 6.86324 21.5369 4.43812 18.5579 4.45162L18.5576 4.45199ZM18.5962 12.6442C17.5132 12.6491 16.428 12.1807 15.5445 11.4393L15.81 10.3518V10.2836C16.008 9.13085 16.6072 7.16511 18.6382 7.15611C19.3559 7.1548 20.0449 7.43755 20.5548 7.94259C21.0647 8.44764 21.354 9.13394 21.3596 9.8516C21.2984 11.409 20.0182 12.6341 18.5958 12.6405L18.5962 12.6442Z" fill="white"/>
</svg>
